tools/download-figma-icons/icons/outlined-medium/safe-loading.svg

<svg width="24" height="24" viewBox="0 0 24 24" fill="none" xmlns="http://www.w3.org/2000/svg">
<path fill-rule="evenodd" clip-rule="evenodd" d="M16.9835 18.447C18.3935 17.3273 19.202 15.645 19.202 13.8307V3.585C16.1833 3.4815 15.0973 2.754 14.213 2.1615L14.2128 2.16133C13.6181 1.76318 13.2251 1.5 12.2263 1.5C11.2276 1.5 10.8344 1.76266 10.2393 2.16015L10.2373 2.1615C9.35226 2.75475 8.26626 3.4815 5.24976 3.585V13.8307C5.24976 15.645 6.05901 17.3272 7.46751 18.4462L12.2263 22.233L16.9835 18.447ZM15.0485 0.91575C15.8743 1.47 16.811 2.097 19.952 2.097C20.3668 2.097 20.702 2.433 20.702 2.847V13.8308C20.702 16.1048 19.6865 18.216 17.9173 19.6215L12.6935 23.7788C12.557 23.8875 12.392 23.9415 12.2263 23.9415C12.0613 23.9415 11.8963 23.8875 11.759 23.7788L6.53376 19.6208C4.76526 18.216 3.74976 16.1048 3.74976 13.8308V2.847C3.74976 2.433 4.08576 2.097 4.49976 2.097C7.63776 2.097 8.57526 1.47 9.40326 0.91575C10.0753 0.46575 10.7713 0 12.2263 0C13.6795 0 14.3733 0.464127 15.045 0.913396L15.0485 0.91575ZM14.2798 13.0247L15.2645 12.04C15.2855 12.019 15.2855 11.9837 15.2645 11.962L12.2938 8.99197C12.2938 8.99122 12.293 8.99122 12.2923 8.99047C12.2915 8.98972 12.2915 8.98897 12.2908 8.98897L11.6615 8.35897C11.651 8.34772 11.6368 8.34247 11.6233 8.34247C11.609 8.34247 11.5948 8.34772 11.5843 8.35897L10.52 9.42322C10.022 9.92122 9.75052 10.5835 9.75727 11.2877C9.76477 11.9927 10.0483 12.6497 10.5568 13.1395C11.5708 14.116 13.2403 14.0635 14.2798 13.0247ZM12.722 7.29848L12.8225 7.39898L14.1133 6.10823C14.4058 5.81498 14.8805 5.81498 15.1738 6.10823C15.467 6.40073 15.467 6.87548 15.1738 7.16873L13.883 8.46023L15.164 9.74048L16.4548 8.44973C16.748 8.15648 17.222 8.15648 17.5153 8.44973C17.8085 8.74298 17.8085 9.21698 17.5153 9.51023L16.2238 10.801L16.325 10.9015C16.9318 11.5082 16.9318 12.4937 16.325 13.1005L15.3403 14.086C14.5085 14.917 13.4113 15.3362 12.3253 15.3362C11.5213 15.3362 10.7278 15.0977 10.0468 14.6372L8.43877 16.2452C8.29252 16.3922 8.10052 16.465 7.90852 16.465C7.71727 16.465 7.52527 16.3922 7.37827 16.2452C7.08577 15.9527 7.08577 15.478 7.37827 15.1847L8.97727 13.5857C8.51752 12.9182 8.26552 12.1315 8.25802 11.3027C8.24752 10.192 8.67427 9.14798 9.45952 8.36273L10.5238 7.29848C11.111 6.71123 12.1348 6.71123 12.722 7.29848Z" fill="black"/>
</svg>

<svg width="24" height="24" viewBox="0 0 24 24" fill="none" xmlns="http://www.w3.org/2000/svg"><path fill-rule="evenodd" clip-rule="evenodd" d="M16.983 18.447a5.858 5.858 0 0 0 2.219-4.616V3.585c-3.019-.103-4.105-.831-4.989-1.423-.595-.399-.988-.662-1.987-.662-.998 0-1.392.263-1.987.66l-.002.002c-.885.593-1.97 1.32-4.987 1.423v10.246a5.86 5.86 0 0 0 2.218 4.615l4.758 3.787 4.757-3.786ZM15.05.916c.825.554 1.762 1.181 4.903 1.181a.75.75 0 0 1 .75.75v10.984a7.353 7.353 0 0 1-2.785 5.79l-5.224 4.158a.748.748 0 0 1-.934 0L6.534 19.62a7.352 7.352 0 0 1-2.784-5.79V2.847a.75.75 0 0 1 .75-.75c3.138 0 4.075-.627 4.903-1.181C10.075.466 10.771 0 12.226 0c1.454 0 2.147.464 2.819.913l.004.003Zm-.77 12.109.986-.985a.056.056 0 0 0 0-.078l-2.971-2.97-.002-.002-.001-.001-.63-.63a.052.052 0 0 0-.038-.017.053.053 0 0 0-.039.017L10.52 9.423a2.583 2.583 0 0 0-.763 1.865 2.59 2.59 0 0 0 .8 1.851c1.014.977 2.683.925 3.723-.114Zm-1.557-5.727.1.101 1.291-1.29a.75.75 0 1 1 1.06 1.06l-1.29 1.291 1.281 1.28 1.29-1.29a.75.75 0 1 1 1.061 1.06l-1.291 1.291.101.1a1.556 1.556 0 0 1 0 2.2l-.985.985a4.266 4.266 0 0 1-3.015 1.25 4.064 4.064 0 0 1-2.278-.699L8.44 16.245a.747.747 0 0 1-1.06 0 .75.75 0 0 1 0-1.06l1.598-1.6a4.07 4.07 0 0 1-.719-2.282 4.072 4.072 0 0 1 1.202-2.94l1.064-1.065c.587-.587 1.61-.587 2.198 0Z" fill="currentColor"/></svg>
